image/ection-twacs-item-img8.svg

<svg fill="none" height="29" viewBox="0 0 29 29" width="29" xmlns="http://www.w3.org/2000/svg"><g fill="#4b4b4b"><path d="m19.4001 12.0669c0 1.1046-.5969 2-1.3333 2s-1.3333-.8954-1.3333-2c0-1.1045.5969-2 1.3333-2s1.3333.8955 1.3333 2z"/><path d="m11.4001 12.0669c0 1.1046-.5969 2-1.3333 2-.73637 0-1.33332-.8954-1.33332-2 0-1.1045.59695-2 1.33332-2 .7364 0 1.3333.8955 1.3333 2z"/><path clip-rule="evenodd" d="m15.7535.80128c.1098-.541249.6376-.8909591 1.1789-.7811006 5.618 1.1403106 10.0409 5.5630706 11.1813 11.1811206.1098.5412-.2399 1.069-.7811 1.1789-.5413.1099-1.0691-.2398-1.179-.7811-.9806-4.83081-4.7882-8.63836-9.619-9.61889-.5413-.10986-.891-.63768-.7811-1.17893zm-3.3731.00007c.1098.54125-.2399 1.06907-.7811 1.17893-4.83088.98053-8.63848 4.78808-9.61909 9.61892-.10987.5412-.6377.8909-1.178946.7811-.541247-.1099-.8909486-.6377-.7810814-1.179 1.1403974-5.61798 5.5632174-10.04074 11.1812174-11.1810501.5413-.1098584 1.0691.2398521 1.179.7811001zm-11.578924 14.95225c.541244-.1099 1.069074.2398 1.178944.7811.98061 4.8308 4.78821 8.6383 9.61908 9.6189.5412.1098.8909.6377.7811 1.1789-.1099.5412-.6377.891-1.1789.7811-5.61808-1.1403-10.04091-5.5631-11.181305-11.1811-.1098672-.5412.239835-1.0691.781081-1.1789zm26.531124 0c.5412.1098.8909.6377.7811 1.1789-1.1404 5.618-5.5633 10.0408-11.1813 11.1811-.5413.1099-1.0691-.2399-1.1789-.7811-.1099-.5412.2398-1.0691.7811-1.1789 4.8308-.9806 8.6384-4.7881 9.619-9.6189.1099-.5413.6377-.891 1.179-.7811zm-18.06915 3.0512c.32887-.4437.95515-.5368 1.39885-.2079.9711.7198 2.1433 1.1367 3.4045 1.1367s2.4334-.4169 3.4045-1.1367c.4437-.3289 1.07-.2358 1.3989.2079s.2358 1.07-.2079 1.3988c-1.2965.9611-2.8822 1.53-4.5955 1.53s-3.2989-.5689-4.59547-1.53c-.44369-.3288-.53676-.9551-.20788-1.3988z" fill-rule="evenodd"/></g></svg>

<svg width="29" height="29" viewBox="0 0 29 29" fill="none" xmlns="http://www.w3.org/2000/svg">
<path d="M19.4001 12.0669C19.4001 13.1715 18.8032 14.0669 18.0668 14.0669C17.3304 14.0669 16.7335 13.1715 16.7335 12.0669C16.7335 10.9624 17.3304 10.0669 18.0668 10.0669C18.8032 10.0669 19.4001 10.9624 19.4001 12.0669Z" fill="#4B4B4B"/>
<path d="M11.4001 12.0669C11.4001 13.1715 10.8032 14.0669 10.0668 14.0669C9.33043 14.0669 8.73348 13.1715 8.73348 12.0669C8.73348 10.9624 9.33043 10.0669 10.0668 10.0669C10.8032 10.0669 11.4001 10.9624 11.4001 12.0669Z" fill="#4B4B4B"/>
<path fill-rule="evenodd" clip-rule="evenodd" d="M15.7535 0.80128C15.8633 0.260031 16.3911 -0.0896791 16.9324 0.0201794C22.5504 1.16049 26.9733 5.58325 28.1137 11.2013C28.2235 11.7425 27.8738 12.2703 27.3326 12.3802C26.7913 12.4901 26.2635 12.1404 26.1536 11.5991C25.173 6.76829 21.3654 2.96074 16.5346 1.98021C15.9933 1.87035 15.6436 1.34253 15.7535 0.80128ZM12.3804 0.80135C12.4902 1.3426 12.1405 1.87042 11.5993 1.98028C6.76842 2.96081 2.96082 6.76836 1.98021 11.5992C1.87034 12.1404 1.34251 12.4901 0.801264 12.3803C0.260017 12.2704 -0.0896846 11.7426 0.0201826 11.2013C1.16058 5.58332 5.5834 1.16056 11.2014 0.0202499C11.7427 -0.0896085 12.2705 0.260102 12.3804 0.80135ZM0.801476 15.7536C1.34272 15.6437 1.87055 15.9934 1.98042 16.5347C2.96103 21.3655 6.76863 25.173 11.5995 26.1536C12.1407 26.2634 12.4904 26.7913 12.3806 27.3325C12.2707 27.8737 11.7429 28.2235 11.2017 28.1136C5.58362 26.9733 1.16079 22.5505 0.020395 16.9325C-0.0894722 16.3913 0.26023 15.8634 0.801476 15.7536ZM27.3326 15.7536C27.8738 15.8634 28.2235 16.3913 28.1137 16.9325C26.9733 22.5505 22.5504 26.9733 16.9324 28.1136C16.3911 28.2235 15.8633 27.8737 15.7535 27.3325C15.6436 26.7913 15.9933 26.2634 16.5346 26.1536C21.3654 25.173 25.173 21.3655 26.1536 16.5347C26.2635 15.9934 26.7913 15.6437 27.3326 15.7536ZM9.26345 18.8048C9.59232 18.3611 10.2186 18.268 10.6623 18.5969C11.6334 19.3167 12.8056 19.7336 14.0668 19.7336C15.328 19.7336 16.5002 19.3167 17.4713 18.5969C17.915 18.268 18.5413 18.3611 18.8702 18.8048C19.1991 19.2485 19.106 19.8748 18.6623 20.2036C17.3658 21.1647 15.7801 21.7336 14.0668 21.7336C12.3535 21.7336 10.7679 21.1647 9.47133 20.2036C9.02764 19.8748 8.93457 19.2485 9.26345 18.8048Z" fill="#4B4B4B"/>
</svg>
